icons/svg/account-switch.svg

﻿<?xml version="1.0" encoding="utf-8"?>
<!DOCTYPE svg PUBLIC "-//W3C//DTD SVG 1.1//EN" "http://www.w3.org/Graphics/SVG/1.1/DTD/svg11.dtd">
<svg xmlns="http://www.w3.org/2000/svg" xmlns:xlink="http://www.w3.org/1999/xlink" version="1.1" baseProfile="full" width="24" height="24" viewBox="0 0 24.00 24.00" enable-background="new 0 0 24.00 24.00" xml:space="preserve">
	<path fill="#000000" fill-opacity="1" stroke-linejoin="round" d="M 16,9C 18.333,9 23,10.168 23,12.5L 23,15L 17,15L 17,12.5C 17,11.017 16.194,9.891 15.035,9.054L 16,9 Z M 8,9C 10.333,9 15,10.168 15,12.5L 15,15L 1,15L 1,12.5C 1,10.168 5.66601,9 8,9 Z M 8,7C 6.34302,7 5,5.656 5,4C 5,2.34401 6.34302,1.00001 8,1.00001C 9.65702,1.00001 10.99,2.34401 10.99,4C 10.99,5.656 9.65702,7 8,7 Z M 16,7C 14.343,7 13,5.656 13,4C 13,2.34401 14.343,1.00001 16,1.00001C 17.657,1.00001 18.99,2.34401 18.99,4C 18.99,5.656 17.657,7 16,7 Z M 9,16.75L 9,19L 15,19L 15,16.75L 18.25,20L 15,23.25L 15,21L 9,21L 9,23.25L 5.75,20L 9,16.75 Z "/>
</svg>

<svg xmlns="http://www.w3.org/2000/svg" version="1.1" baseProfile="full" width="24" height="24" viewBox="0 0 24.00 24.00" xml:space="preserve"><path fill="#000" fill-opacity="1" stroke-linejoin="round" d="M16 9c2.333 0 7 1.168 7 3.5V15h-6v-2.5c0-1.483-.806-2.61-1.965-3.446L16 9zM8 9c2.333 0 7 1.168 7 3.5V15H1v-2.5C1 10.168 5.666 9 8 9zm0-2C6.343 7 5 5.656 5 4s1.343-3 3-3 2.99 1.344 2.99 3S9.657 7 8 7zm8 0c-1.657 0-3-1.344-3-3s1.343-3 3-3 2.99 1.344 2.99 3S17.657 7 16 7zm-7 9.75V19h6v-2.25L18.25 20 15 23.25V21H9v2.25L5.75 20 9 16.75z"/></svg>
